Papirus/64x64/apps/qmmp.svg

<?xml version="1.0" encoding="UTF-8" standalone="no"?>
<svg xmlns="http://www.w3.org/2000/svg" height="64" width="64" version="1">
 <path d="m 24.603595,8.0006428 c -0.553993,0 -1.003987,0.4779939 -1.003987,1.0675863 0,0.4818938 0.299996,0.8871486 0.713671,1.0199869 0.621672,2.253771 2.085373,4.376744 4.106947,5.919124 a 4.199946,5.4117305 0 0 0 -0.619992,2.816764 4.199946,5.4117305 0 0 0 1.399982,4.026348 l 0,27.089652 c 0,2.34997 1.117986,4.059948 2.799964,4.059948 1.682578,0 2.796164,-1.779657 2.799964,-4.058748 l 0,-27.093652 a 4.199946,5.4117305 0 0 0 1.399982,-4.024348 4.199946,5.4117305 0 0 0 -0.617992,-2.816964 c 2.019974,-1.54218 3.481955,-3.665753 4.103947,-5.918924 0.413995,-0.1327983 0.713991,-0.5381931 0.713991,-1.0199869 0,-0.5895924 -0.449994,-1.0675863 -1.003987,-1.0675863 -0.555213,0 -1.006227,0.4789939 -1.006227,1.0675463 0,0.3248158 0.137178,0.6136921 0.352735,0.8085896 -0.567032,1.9899743 -1.877476,3.8691503 -3.674952,5.2585323 a 4.199946,5.4117305 0 0 0 -3.067961,-1.722978 4.199946,5.4117305 0 0 0 -3.065961,1.722778 c -1.797976,-1.389382 -3.10996,-3.267758 -3.675952,-5.2583323 0.213997,-0.1949975 0.351995,-0.4837938 0.351995,-0.8085896 0,-0.5885924 -0.451994,-1.0675863 -1.005987,-1.0675863 z" style="fill:#5d5d5d"/>
 <g transform="matrix(1.399982,0,0,1.3548226,-1.6000682,-2.2577782)">
  <path transform="matrix(1.4286,0,0,1.4762,1.1429,1.6667)" d="M 8.3008,7 C 4.8214,7 2,10.336 2,14.451 c 0.0027,3.194 1.7253,6.031 4.2832,7.053 -0.0556,0.354 -0.0841,0.714 -0.084,1.076 0,2.993 1.8816,5.42 4.2008,5.42 2.32,0 4.2,-2.427 4.2,-5.42 l 0,-8.129 C 14.6,10.336 11.78,7 8.3008,7 Z m 15.398,0 c -3.479,0 -6.299,3.336 -6.299,7.451 l 0,8.129 c 0,2.993 1.88,5.42 4.2,5.42 2.319,0 4.201,-2.427 4.201,-5.42 0,-0.362 -0.029,-0.722 -0.084,-1.076 2.558,-1.022 4.28,-3.859 4.283,-7.053 0,-4.115 -2.821,-7.451 -6.301,-7.451 z" style="fill:#e75177"/>
 </g>
 <g transform="matrix(1.9994138,0,0,2.0013216,0.00891383,-0.21065344)" style="fill:#ff6f6f">
  <ellipse rx="3.495" transform="matrix(0.96724,-0.25388,0.26384,0.96457,0,0)" ry="5.493" cy="16.589" cx="4.056"/>
  <ellipse rx="3.495" ry="5.493" transform="matrix(-0.96724,-0.25388,-0.26384,0.96457,0,0)" cy="8.464" cx="-26.812"/>
  <path d="m 12.428,23.353 a 2.7469,2.0969 73.877 0 1 -1.3038,3.1818 2.7469,2.0969 73.877 0 1 -2.7531,-2.117 2.7469,2.0969 73.877 0 1 1.3038,-3.1818 2.7469,2.0969 73.877 0 1 2.7531,2.117 z"/>
  <path d="m 19.572,23.353 a 2.0969,2.7469 16.123 0 0 1.3038,3.1818 2.0969,2.7469 16.123 0 0 2.7531,-2.117 2.0969,2.7469 16.123 0 0 -1.3038,-3.1818 2.0969,2.7469 16.123 0 0 -2.7531,2.117 z"/>
 </g>
 <path style="opacity:0.2;fill:#ffffff" d="M 16.601562 14 C 9.6427127 14 4 20.672389 4 28.902344 C 4.0000962 29.030346 4.0138144 29.154623 4.0253906 29.279297 C 4.3037168 21.340555 9.8205755 15.001953 16.601562 15.001953 C 23.560012 15.001953 29.199219 21.672389 29.199219 29.902344 L 29.199219 28.902344 C 29.199219 20.672389 23.560012 14 16.601562 14 z M 47.398438 14 C 40.440387 14 34.800781 20.672389 34.800781 28.902344 L 34.800781 29.902344 C 34.800781 21.672389 40.440387 15.001953 47.398438 15.001953 C 54.180594 15.001953 59.696321 21.340555 59.974609 29.279297 C 59.986038 29.154623 60 29.030346 60 28.902344 C 60 20.672389 54.358487 14 47.398438 14 z M 12.417969 44.935547 C 12.416769 45.011547 12.398438 45.084157 12.398438 45.160156 C 12.398438 45.433755 12.434774 45.693161 12.460938 45.957031 C 12.470724 45.962183 12.480535 45.967257 12.490234 45.972656 C 12.508657 45.649705 12.516499 45.3254 12.566406 45.007812 C 12.514806 44.987812 12.46917 44.955547 12.417969 44.935547 z M 51.582031 44.935547 C 51.530031 44.955547 51.485595 44.987812 51.433594 45.007812 C 51.482324 45.3254 51.491012 45.649705 51.509766 45.972656 C 51.519366 45.967257 51.529321 45.962183 51.539062 45.957031 C 51.565174 45.693161 51.601563 45.433755 51.601562 45.160156 C 51.601562 45.084156 51.584031 45.011546 51.582031 44.935547 z"/>
 <path style="opacity:0.2" d="M 4.0195312,29.464844 C 4.013794,29.610955 4,29.754449 4,29.902344 c 0.00538,6.322566 3.3873328,11.935261 8.417969,14.03125 0.01054,-0.646457 0.04898,-1.291444 0.148437,-1.925782 -0.03661,-0.01463 -0.07099,-0.03382 -0.107422,-0.04883 -0.02364,0.323268 -0.03571,0.649427 -0.04101,0.97461 C 7.53775,40.900275 4.2191397,35.554741 4.0195312,29.464844 Z m 55.9609378,0 c -0.199626,6.089726 -3.518219,11.435431 -8.398438,13.46875 -0.0053,-0.325829 -0.01729,-0.650706 -0.04102,-0.97461 -0.03643,0.015 -0.07081,0.0342 -0.107422,0.04883 0.09946,0.634338 0.137897,1.279325 0.148437,1.925782 C 56.612667,41.837605 59.9946,36.22471 60,29.902344 c 0,-0.147738 -0.01379,-0.291392 -0.01953,-0.4375 z m -30.78125,15.695312 c 0,5.985967 -3.759205,10.839848 -8.398438,10.839844 -4.464346,0 -8.10787,-4.498795 -8.376953,-10.171875 -0.0087,0.110613 -0.02543,0.220458 -0.02539,0.332031 0,5.985967 3.76311,10.839844 8.402343,10.839844 4.639233,4e-6 8.398438,-4.853877 8.398438,-10.839844 l 0,-1 z m 5.601562,0 0,1 C 34.800781,52.146123 38.559986,57 43.199219,57 c 4.639233,4e-6 8.402343,-4.853877 8.402343,-10.839844 3.9e-5,-0.111579 -0.01665,-0.221418 -0.02539,-0.332031 C 51.307089,51.501205 47.663565,56.000004 43.199219,56 38.559986,56 34.800781,51.146123 34.800781,45.160156 Z"/>
</svg>

<?xml version="1.0" encoding="UTF-8" standalone="no"?>
<svg xmlns="http://www.w3.org/2000/svg" height="64" width="64" version="1">
 <path style="fill:#5d5d5d" d="m24.604 8.0006c-.55399 0-1.004.47799-1.004 1.0676 0 .48189 0.3.88715.71367 1.02.62167 2.2538 2.0854 4.3767 4.1069 5.9191a4.1999 5.4117 0 0 0 -.61999 2.8168 4.1999 5.4117 0 0 0 1.4 4.0263v27.09c0 2.35 1.118 4.0599 2.8 4.0599 1.6826 0 2.7962-1.7797 2.8-4.0587v-27.094a4.1999 5.4117 0 0 0 1.4 -4.0243 4.1999 5.4117 0 0 0 -.61799 -2.817c2.02-1.5422 3.482-3.6658 4.1039-5.9189 0.414-.13280.71399-.53819.71399-1.02 0-.58959-.44999-1.0676-1.004-1.0676-.55521 0-1.0062.47899-1.0062 1.0675 0 .32482.13718.61369.35274.80859-.56703 1.99-1.8775 3.8692-3.675 5.2585a4.1999 5.4117 0 0 0 -3.068 -1.723 4.1999 5.4117 0 0 0 -3.066 1.7228c-1.798-1.3894-3.11-3.2678-3.676-5.2583 0.214-0.195 0.352-.48379 0.352-.80859 0-.58859-.45199-1.0676-1.006-1.0676z"/>
 <g transform="matrix(1.4 0 0 1.3548 -1.6001 -2.2578)">
  <path style="fill:#e75177" transform="matrix(1.4286,0,0,1.4762,1.1429,1.6667)" d="m8.3008 7c-3.4794 0-6.3008 3.336-6.3008 7.451.0027 3.194 1.7253 6.031 4.2832 7.053-.0556.354-.0841.714-.084 1.076 0 2.993 1.8816 5.42 4.2008 5.42 2.32 0 4.2-2.427 4.2-5.42v-8.129c0-4.115-2.82-7.451-6.2992-7.451zm15.398 0c-3.479 0-6.299 3.336-6.299 7.451v8.129c0 2.993 1.88 5.42 4.2 5.42 2.319 0 4.201-2.427 4.201-5.42 0-.362-.029-.722-.084-1.076 2.558-1.022 4.28-3.859 4.283-7.053 0-4.115-2.821-7.451-6.301-7.451z"/>
  <path style="opacity:.2;stroke-width:1.4522" d="m4.0141 23.406c-.00272.11115-.013951.21961-.013951.33157.00383 4.68 2.4299 8.837 6.0394 10.374.01981-.23471.0443-.46888.07952-.70062-3.5482-1.465-5.9639-5.458-6.1049-10.005zm39.973 0c-.14139 4.5469-2.5566 8.5398-6.105 10.005.03484.23174.05966.46592.07952.70062 3.6096-1.5368 6.0352-5.6938 6.0394-10.374 0-.11196-.01123-.22042-.01395-.33157zm-21.987 11.593c0 4.4183-2.6846 8.0009-5.999 8.0009-3.2186 0-5.8403-3.3839-5.9878-7.6276-.0042.12164-.013984.24271-.013951.36473 0 4.4183 2.6885 8.0009 6.0018 8.0009 3.3144 0 5.999-3.5827 5.999-8.0009zm4.0012 0v.73810c0 4.4183 2.6846 8.0009 5.999 8.0009 3.3129 0 6.0018-3.5827 6.0018-8.0009 0-.12202-.0097-.24308-.01395-.36473-.14750 4.2436-2.7695 7.6276-5.9878 7.6276-3.3144 0-5.999-3.5827-5.999-8.0009z"/>
 </g>
 <g style="fill:#ff6f6f" transform="matrix(1.9994 0 0 2.0013 .0089138 -.21065)">
  <ellipse rx="3.495" transform="matrix(.96724 -.25388 .26384 .96457 0 0)" ry="5.493" cy="16.589" cx="4.056"/>
  <ellipse rx="3.495" ry="5.493" transform="matrix(-.96724 -.25388 -.26384 .96457 0 0)" cy="8.464" cx="-26.812"/>
  <path d="m12.428 23.353a2.7469 2.0969 73.877 0 1 -1.3038 3.1818 2.7469 2.0969 73.877 0 1 -2.7531 -2.117 2.7469 2.0969 73.877 0 1 1.3038 -3.1818 2.7469 2.0969 73.877 0 1 2.7531 2.117z"/>
  <path d="m19.572 23.353a2.0969 2.7469 16.123 0 0 1.3038 3.1818 2.0969 2.7469 16.123 0 0 2.7531 -2.117 2.0969 2.7469 16.123 0 0 -1.3038 -3.1818 2.0969 2.7469 16.123 0 0 -2.7531 2.117z"/>
 </g>
 <path style="opacity:.2;fill:#ffffff" d="m16.602 14c-6.9593 0-12.602 6.672-12.602 14.902.0001.128.0138.253.0254.377.2783-7.938 5.7952-14.277 12.577-14.277 6.958 0 12.597 6.67 12.597 14.9v-1c0-8.23-5.639-14.902-12.597-14.902zm30.796 0c-6.958 0-12.597 6.672-12.597 14.902v1c0-8.23 5.639-14.9 12.597-14.9 6.783 0 12.298 6.339 12.577 14.277.011-.124.025-.249.025-.377 0-8.23-5.642-14.902-12.602-14.902zm-34.98 30.936c-.001.076-.020.148-.020.224 0 .274.037.533.063.797.010.005.020.010.029.016.019-.323.026-.648.076-.965-.051-.020-.097-.052-.148-.072zm39.164 0c-.052.020-.096.052-.148.072.048.317.057.642.076.965.009-.006.019-.011.029-.016.026-.264.063-.523.063-.797 0-.076-.018-.148-.020-.224z"/>
</svg>
